X: 134006
Q: "Irish Reel."
M: C
L: 1/8
K: Em
(ef) |\
gfed edBd | edeg B2(BA) |\
bagf gfed | edeg B2(BA) |\
|: (gf) |\
e2B2 B2(gf) | e2B2 B2(gf) |\
e2(ef) gfga | b2e2 e2(ga) |\
bagf gfed | edeg B2(BA) |\


